assets/images/sections/amazon-web-services/clients.svg

<svg width="40" height="28" viewBox="0 0 33 23" version="1.1" xmlns="http://www.w3.org/2000/svg" xmlns:xlink="http://www.w3.org/1999/xlink">
<title>team</title>
<desc>Created using Figma</desc>
<g id="Canvas" transform="translate(-930 -5181)">
<g id="team">
<g id="Shape">
<use xlink:href="#path0_fill" transform="translate(955.314 5190.88)" fill="#FFFFFF"/>
</g>
<g id="Shape">
<use xlink:href="#path1_fill" transform="translate(930 5181.15)" fill="#FFFFFF"/>
</g>
<g id="Shape">
<use xlink:href="#path2_fill" transform="translate(959.966 5200.13)" fill="#FFFFFF"/>
</g>
<g id="Shape">
<use xlink:href="#path3_fill" transform="translate(932.067 5200.73)" fill="#FFFFFF"/>
</g>
<g id="Shape">
<use xlink:href="#path4_fill" transform="translate(942.405 5185.29)" fill="#FFFFFF"/>
</g>
<g id="Shape">
<use xlink:href="#path5_fill" transform="translate(940.337 5201.1)" fill="#FFFFFF"/>
</g>
<g id="Shape">
<use xlink:href="#path5_fill" transform="translate(951.708 5201.1)" fill="#FFFFFF"/>
</g>
</g>
</g>
<defs>
<path id="path0_fill" d="M 3.80074 0.534653C 2.67783 0.00612867 0.572473 0 0.483398 0C 0.216434 0 0 0.203764 0 0.455101C 0 0.706438 0.216434 0.910202 0.483398 0.910202C 1.02667 0.910263 2.60404 0.989026 3.36838 1.3488C 3.4378 1.3815 3.51154 1.39692 3.58417 1.39692C 3.76148 1.39692 3.93222 1.30468 4.01691 1.14528C 4.13634 0.920457 4.03954 0.647093 3.80074 0.534653Z"/>
<path id="path1_fill" fill-rule="evenodd" d="M 31.5248 16.7461L 29.5284 16.209C 29.4422 16.186 29.382 16.1108 29.382 16.0264L 29.382 15.3989C 29.5444 15.293 29.6993 15.1748 29.8442 15.0425C 30.5461 14.4009 30.9326 13.541 30.9326 12.6201L 30.9326 11.7544L 31.1256 11.3911C 31.3375 10.9922 31.4495 10.5454 31.4495 10.0996L 31.4495 7.75391C 31.4495 7.50293 31.233 7.29883 30.9661 7.29883L 26.3143 7.29883C 24.6227 7.29883 23.2466 8.59473 23.2466 10.187L 23.2466 10.2144C 23.2466 10.585 23.3397 10.9565 23.5159 11.2881L 23.7634 11.7544L 23.7634 12.4976C 23.7634 13.6758 24.3801 14.7329 25.314 15.3687L 25.3141 16.0264C 25.3141 16.1279 25.3141 16.1699 24.915 16.2773L 23.9409 16.5391L 21.1229 15.5747C 21.133 15.4492 21.0881 15.3218 20.9911 15.2261L 20.0907 14.3354L 20.0907 12.8403C 20.1859 12.7666 20.2797 12.6904 20.3707 12.6104C 21.5067 11.6079 22.1581 10.1924 22.1581 8.72754L 22.1581 7.5332C 22.5012 6.83057 22.675 6.08691 22.675 5.3208L 22.675 0.455078C 22.675 0.203613 22.4586 0 22.1916 0L 14.9555 0C 12.409 0 10.3373 1.95068 10.3373 4.34814L 10.3373 5.32129C 10.3373 6.08691 10.5111 6.83057 10.8541 7.5332L 10.8541 8.56055C 10.8541 10.2622 11.6576 11.7944 12.9216 12.8052L 12.9216 14.3354L 12.0211 15.2261C 11.9241 15.3223 11.8792 15.4492 11.8893 15.5747L 8.91516 16.5928C 8.69965 16.6665 8.49939 16.7666 8.31757 16.8877L 7.85052 16.6675C 9.24078 16.0977 9.68115 15.2964 9.70233 15.2568C 9.77039 15.1289 9.77039 14.978 9.70233 14.8496C 9.35382 14.1934 9.31158 12.9907 9.27771 12.0244C 9.26642 11.7026 9.25574 11.3989 9.23529 11.1279C 9.0705 8.94531 7.3078 7.29883 5.13513 7.29883C 2.9624 7.29883 1.19965 8.94531 1.03491 11.1279C 1.01447 11.3989 1.00378 11.7026 0.992493 12.0244C 0.958618 12.9907 0.916321 14.1934 0.567871 14.8496C 0.499817 14.978 0.499817 15.1284 0.567871 15.2568C 0.58905 15.2964 1.02856 16.0962 2.42157 16.6665L 1.12433 17.2773C 0.430786 17.604 0 18.2603 0 18.9902L 0 22.3525C 0 22.6035 0.216431 22.8076 0.483398 22.8076C 0.750366 22.8076 0.966797 22.6035 0.966797 22.3525L 0.966797 18.9902C 0.966797 18.6069 1.19281 18.2627 1.5567 18.0913L 3.17206 17.3311L 3.73395 17.834C 4.12689 18.1851 4.63092 18.3608 5.13513 18.3608C 5.63922 18.3608 6.14349 18.1851 6.53625 17.834L 7.09808 17.3311L 7.62482 17.5791C 7.37677 17.9526 7.23602 18.3906 7.23602 18.8496L 7.23602 22.3525C 7.23602 22.604 7.45245 22.8076 7.71942 22.8076C 7.98639 22.8076 8.20282 22.604 8.20282 22.3525L 8.20282 18.8496C 8.20282 18.2251 8.62183 17.6616 9.24554 17.4482L 12.3813 16.3745L 13.6867 18.2183C 13.8536 18.4541 14.121 18.605 14.4203 18.6328C 14.4537 18.6362 14.4869 18.6377 14.5201 18.6377C 14.7842 18.6377 15.0372 18.5396 15.2263 18.3618L 16.0226 17.6118L 16.0226 22.3525C 16.0226 22.604 16.2391 22.8076 16.506 22.8076C 16.773 22.8076 16.9894 22.604 16.9894 22.3525L 16.9894 17.6118L 17.7858 18.3618C 17.9749 18.5396 18.2278 18.6377 18.4921 18.6377C 18.5251 18.6377 18.5583 18.6362 18.5917 18.6328C 18.8912 18.605 19.1586 18.4541 19.3254 18.2183L 20.6309 16.375L 23.7666 17.4482C 24.3902 17.6616 24.8093 18.2251 24.8093 18.8496L 24.8093 22.3525C 24.8093 22.604 25.0258 22.8076 25.2927 22.8076C 25.5596 22.8076 25.7761 22.604 25.7761 22.3525L 25.7761 18.8496C 25.7761 18.2168 25.5091 17.6235 25.0611 17.1846L 25.1805 17.1523C 25.301 17.1201 25.4654 17.0757 25.6304 16.9995L 26.8646 18.1616L 26.8646 22.3525C 26.8646 22.604 27.081 22.8076 27.348 22.8076C 27.6149 22.8076 27.8314 22.604 27.8314 22.3525L 27.8314 18.1616L 29.057 17.0078C 29.1222 17.0391 29.1906 17.0654 29.2627 17.0845L 31.2592 17.6216C 31.7148 17.7441 32.0332 18.1416 32.0332 18.5879L 32.0332 22.3525C 32.0332 22.604 32.2496 22.8076 32.5166 22.8076C 32.7836 22.8076 33 22.604 33 22.3525L 33 18.5879C 33 17.7373 32.3934 16.98 31.5248 16.7461ZM 3.1012 15.9424C 2.19696 15.6362 1.74341 15.228 1.5498 15.0049C 1.68182 14.6797 1.7674 14.3076 1.82532 13.915C 2.09192 14.5166 2.53839 15.0308 3.1012 15.397L 3.1012 15.9424ZM 3.95044 16.772L 4.40002 17.1738C 4.81219 17.543 5.45807 17.543 5.87036 17.1738L 6.31989 16.772C 6.24396 16.6382 6.20233 16.4863 6.20233 16.3271L 6.20239 15.8428C 5.86456 15.9414 5.50629 15.9951 5.13519 15.9951C 4.76373 15.9951 4.40521 15.9414 4.06799 15.8423L 4.06799 16.3271C 4.06799 16.4863 4.02631 16.6382 3.95044 16.772ZM 5.13531 15.085C 3.69183 15.085 2.51758 13.9795 2.51758 12.6206C 2.51758 12.3691 2.30115 12.1655 2.03418 12.1655C 2.00708 12.1655 1.98065 12.168 1.95483 12.1719L 1.95905 12.0547C 1.96979 11.7422 1.98016 11.4463 1.99933 11.1929C 2.06104 10.375 2.40814 9.62158 2.97662 9.0708C 3.55017 8.51562 4.31677 8.20947 5.13519 8.20947C 5.95361 8.20947 6.72015 8.51562 7.29382 9.0708C 7.8623 9.62158 8.20935 10.375 8.27112 11.1929C 8.29016 11.4463 8.30066 11.7417 8.31158 12.0547L 8.31451 12.1357C 7.78857 11.373 6.97632 10.811 5.92682 10.4932C 4.95728 10.2002 4.12335 10.2183 4.0882 10.2192C 3.96161 10.2227 3.84143 10.2725 3.7536 10.3579L 2.88141 11.2095C 2.69611 11.3906 2.70166 11.6787 2.89386 11.853C 3.08606 12.0278 3.39209 12.0225 3.57739 11.8413L 4.3031 11.1328C 4.9281 11.1616 6.93884 11.3818 7.72089 13.0029C 7.52411 14.1978 6.43341 15.085 5.13531 15.085ZM 7.16913 15.4009L 7.16907 15.9438C 8.07239 15.6377 8.52808 15.2256 8.72058 15.0049C 8.58887 14.6807 8.5033 14.3096 8.44537 13.9175C 8.17859 14.5239 7.73151 15.0366 7.16913 15.4009ZM 11.8209 8.56055L 11.8209 7.43164C 11.8209 7.36279 11.8045 7.29541 11.7728 7.2334C 11.4618 6.62695 11.3041 5.98389 11.3041 5.32129L 11.3041 4.34766C 11.3041 2.45215 12.9421 0.910156 14.9556 0.910156L 21.7083 0.910156L 21.7083 5.32129C 21.7083 5.98389 21.5505 6.62695 21.2394 7.2334C 21.2078 7.29541 21.1914 7.36279 21.1914 7.43164L 21.1914 8.72754C 21.1914 9.95996 20.6651 11.103 19.7095 11.9463C 19.5902 12.0513 19.4664 12.1499 19.3384 12.2422L 19.3301 12.2476C 18.4349 12.8877 17.3384 13.1987 16.1934 13.1289C 13.7415 12.9795 11.8209 10.9727 11.8209 8.56055ZM 14.5157 17.7271C 14.5315 17.7285 14.5393 17.7212 14.5427 17.7178L 15.7523 16.5791L 13.4716 15.1113L 12.9878 15.5898L 14.4911 17.7129C 14.4938 17.7168 14.5 17.7256 14.5157 17.7271ZM 16.5061 15.9619L 13.8884 14.2773L 13.8884 13.4277C 14.5657 13.7725 15.3241 13.9883 16.1307 14.0371C 16.2582 14.0449 16.3848 14.0488 16.5111 14.0488C 17.4354 14.0488 18.325 13.8408 19.1239 13.4458L 19.1239 14.2773L 16.5061 15.9619ZM 18.4965 17.7275C 18.5122 17.7261 18.5184 17.7173 18.5211 17.7134L 20.0245 15.5903L 19.5406 15.1118L 17.2599 16.5796L 18.4695 17.7183C 18.473 17.7212 18.4807 17.7295 18.4965 17.7275ZM 27.348 17.3291L 26.251 16.2964C 26.2701 16.2144 26.2809 16.125 26.2809 16.0259L 26.2808 15.834C 26.5852 15.9282 26.9061 15.9839 27.2381 15.9932L 27.3494 15.9946C 27.7162 15.9946 28.0743 15.9424 28.4152 15.8433L 28.4152 16.0264C 28.4152 16.1172 28.4273 16.2061 28.4501 16.2915L 27.348 17.3291ZM 27.2672 15.084C 27.9818 15.1045 28.6586 14.8574 29.1709 14.3892C 29.6835 13.9209 29.9658 13.293 29.9658 12.6206L 29.9658 11.6475C 29.9658 11.5767 29.9833 11.5068 30.0168 11.4438L 30.2609 10.9844C 30.4059 10.7109 30.4827 10.4053 30.4827 10.0996L 30.4827 8.20947L 26.3143 8.20947C 25.1559 8.20947 24.2134 9.09668 24.2134 10.1875L 24.2134 10.2144C 24.2134 10.4448 24.2712 10.6753 24.3806 10.8813L 24.6792 11.4438C 24.7128 11.5068 24.7302 11.5767 24.7302 11.6475L 24.7302 12.498C 24.7302 13.8843 25.8683 15.0444 27.2672 15.084Z"/>
<path id="path2_fill" d="M 0.483398 0C 0.216434 0 0 0.203764 0 0.455101L 0 3.37473C 0 3.62606 0.216434 3.82983 0.483398 3.82983C 0.750363 3.82983 0.966797 3.62606 0.966797 3.37473L 0.966797 0.455101C 0.966797 0.203825 0.750363 0 0.483398 0Z"/>
<path id="path3_fill" d="M 0.483398 0C 0.216434 0 0 0.203764 0 0.455101L 0 2.77314C 0 3.02448 0.216434 3.22824 0.483398 3.22824C 0.750363 3.22824 0.966797 3.02448 0.966797 2.77314L 0.966797 0.455101C 0.966797 0.203825 0.750363 0 0.483398 0Z"/>
<path id="path4_fill" d="M 8.06128 1.35149C 6.233 -0.36976 2.40778 -0.0406913 0.847881 0.18067C 0.356555 0.250391 0 0.641839 0 1.11144L 0 2.15987C 0 2.41121 0.216434 2.61498 0.483398 2.61498C 0.750363 2.61498 0.966797 2.41121 0.966797 2.15987L 0.966797 1.11138C 0.966797 1.09591 0.977625 1.08268 0.992063 1.08062C 1.61513 0.992206 2.85154 0.855797 4.13254 0.936198C 5.63997 1.03068 6.73181 1.38693 7.37769 1.99507C 7.56647 2.1728 7.87256 2.1728 8.06128 1.99507C 8.25006 1.81733 8.25006 1.52916 8.06128 1.35149Z"/>
<path id="path5_fill" d="M 0.483398 0C 0.216434 0 0 0.203764 0 0.455101L 0 2.40154C 0 2.65287 0.216434 2.85664 0.483398 2.85664C 0.750363 2.85664 0.966797 2.65287 0.966797 2.40154L 0.966797 0.455101C 0.966797 0.203825 0.750363 0 0.483398 0Z"/>
</defs>
</svg>

<svg xmlns="http://www.w3.org/2000/svg" xmlns:xlink="http://www.w3.org/1999/xlink" width="40" height="28" viewBox="0 0 33 23"><g fill="#fff" transform="translate(-930 -5181)"><use xlink:href="#A" x="955.314" y="5190.88"/><use xlink:href="#B" x="930" y="5181.15"/><use xlink:href="#C" x="959.966" y="5200.13"/><use xlink:href="#D" x="932.067" y="5200.73"/><use xlink:href="#E" x="942.405" y="5185.29"/><use xlink:href="#F" x="940.337" y="5201.1"/><use xlink:href="#F" x="951.708" y="5201.1"/></g><defs><path id="A" d="M3.8.535C2.678.006.572 0 .483 0 .216 0 0 .204 0 .455S.216.9.483.9c.543 0 2.12.08 2.885.44.07.033.143.048.216.048.177 0 .348-.092.433-.252.12-.225.023-.498-.216-.61z"/><path id="B" d="M31.525 16.746l-1.996-.537c-.086-.023-.146-.098-.146-.183V15.4a3.6 3.6 0 0 0 .462-.356c.702-.642 1.088-1.5 1.088-2.422v-.866l.193-.363c.212-.4.324-.846.324-1.29V7.754c0-.25-.216-.455-.483-.455h-4.652c-1.692 0-3.068 1.296-3.068 2.888v.027a2.3 2.3 0 0 0 .269 1.074l.248.466v.743c0 1.178.617 2.235 1.55 2.87v.658c0 .102 0 .143-.4.25l-.974.262-2.818-.964a.44.44 0 0 0-.132-.349l-.9-.89V12.84l.28-.23c1.136-1.002 1.787-2.418 1.787-3.883V7.533a5 5 0 0 0 .517-2.212V.455c0-.25-.216-.455-.483-.455h-7.236c-2.546 0-4.618 1.95-4.618 4.348v.973c0 .766.174 1.51.517 2.212V8.56c0 1.702.803 3.234 2.067 4.245v1.53l-.9.89a.44.44 0 0 0-.132.349l-2.974 1.018a2.59 2.59 0 0 0-.598.295l-.467-.22c1.4-.57 1.83-1.37 1.852-1.41a.43.43 0 0 0 0-.407c-.35-.656-.39-1.86-.425-2.825l-.042-.896C9.07 8.945 7.308 7.3 5.135 7.3s-3.935 1.646-4.1 3.83l-.042.896c-.034.966-.076 2.17-.425 2.825a.43.43 0 0 0 0 .407c.02.04.46.84 1.854 1.4l-1.297.61C.43 17.604 0 18.26 0 19v3.362c0 .25.216.455.483.455s.483-.204.483-.455V19c0-.383.226-.728.6-.9l1.615-.76.562.503a2.1 2.1 0 0 0 1.401.527 2.1 2.1 0 0 0 1.401-.527l.562-.503.527.248c-.248.373-.39.81-.39 1.27v3.503c0 .252.216.455.483.455s.483-.204.483-.455V18.85c0-.624.42-1.188 1.043-1.4l3.136-1.074 1.305 1.844c.167.236.434.387.734.415.033.003.067.005.1.005a1.03 1.03 0 0 0 .706-.276l.796-.75v4.74c0 .252.216.455.483.455s.483-.204.483-.455v-4.74l.796.75a1.03 1.03 0 0 0 .706.276l.1-.005c.3-.028.567-.18.734-.415l1.306-1.843 3.136 1.073c.624.213 1.043.777 1.043 1.4v3.503c0 .252.216.455.483.455s.483-.204.483-.455V18.85c0-.633-.267-1.226-.715-1.665l.12-.032c.12-.032.285-.077.45-.153l1.234 1.162v4.19c0 .252.216.455.483.455s.483-.204.483-.455v-4.19l1.226-1.154c.065.03.134.058.206.077l1.997.537c.456.122.774.52.774.966v3.765c0 .252.216.455.483.455s.483-.204.483-.455v-3.765c0-.85-.607-1.608-1.475-1.842zM3.1 15.942c-.904-.306-1.358-.714-1.55-.937a4.78 4.78 0 0 0 .276-1.09c.267.602.713 1.116 1.276 1.482v.545zm.85.83l.45.402c.412.37 1.058.37 1.47 0l.45-.402a.9.9 0 0 1-.118-.445v-.484c-.338.1-.696.152-1.067.152a3.78 3.78 0 0 1-1.067-.153v.485a.9.9 0 0 1-.118.445zm1.185-1.687c-1.443 0-2.618-1.106-2.618-2.464 0-.252-.216-.455-.483-.455a.53.53 0 0 0-.079.006l.004-.117.04-.862c.062-.818.41-1.57.977-2.122.574-.555 1.34-.86 2.16-.86s1.585.306 2.16.86c.568.55.916 1.304.977 2.122l.04.862.003.08c-.526-.763-1.338-1.325-2.388-1.642-.97-.293-1.803-.275-1.84-.274a.5.5 0 0 0-.335.139l-.872.852c-.185.18-.18.47.012.643s.498.17.684-.012l.726-.71c.625.03 2.636.25 3.418 1.87-.197 1.195-1.287 2.082-2.586 2.082zm2.034.316v.543c.903-.306 1.36-.718 1.552-.94-.132-.324-.217-.695-.275-1.087-.267.606-.714 1.12-1.276 1.483zm4.652-6.84v-1.13c0-.07-.016-.136-.048-.198-.31-.606-.47-1.25-.47-1.912v-.974C11.304 2.452 12.942.9 14.956.9h6.753v4.41c0 .663-.158 1.306-.47 1.912-.032.062-.048.13-.048.198v1.296c0 1.232-.526 2.375-1.482 3.22l-.37.296-.008.005c-.895.64-1.992.95-3.137.88-2.452-.15-4.373-2.156-4.373-4.568zm2.695 9.167c.016.001.024-.006.027-.01l1.2-1.14-2.28-1.468-.484.48 1.503 2.123c.003.004.01.013.025.014zm2-1.765l-2.618-1.685v-.85a5.69 5.69 0 0 0 2.242.609l.38.012a5.88 5.88 0 0 0 2.613-.603v.832l-2.618 1.685zm2 1.766c.016-.001.022-.01.025-.014l1.503-2.123-.484-.478-2.28 1.468 1.2 1.14c.003.003.01.01.027.01zm8.85-.398l-1.097-1.033c.02-.082.03-.17.03-.27v-.192a3.57 3.57 0 0 0 .957.159l.11.001c.367 0 .725-.052 1.066-.15v.183c0 .09.012.18.035.265l-1.102 1.038zm-.08-2.245a2.69 2.69 0 0 0 1.904-.695c.513-.468.795-1.096.795-1.77v-.973c0-.07.017-.14.05-.204l.244-.46c.145-.274.222-.58.222-.885v-1.9h-4.168c-1.158 0-2.1.887-2.1 1.978v.027c0 .23.058.46.167.667l.3.563c.034.063.05.133.05.204v.85c0 1.386 1.138 2.546 2.537 2.586z" fill-rule="evenodd"/><path id="C" d="M.483 0C.216 0 0 .204 0 .455v2.92c0 .25.216.455.483.455s.483-.204.483-.455V.455C.967.204.75 0 .483 0z"/><path id="D" d="M.483 0C.216 0 0 .204 0 .455v2.318c0 .25.216.455.483.455s.483-.204.483-.455V.455C.967.204.75 0 .483 0z"/><path id="E" d="M8.06 1.35C6.233-.37 2.408-.04.848.18.357.25 0 .642 0 1.11V2.16c0 .25.216.455.483.455s.483-.204.483-.455V1.11c0-.015.01-.03.025-.03.623-.088 1.86-.225 3.14-.144 1.507.094 2.6.45 3.245 1.06.19.178.495.178.684 0s.19-.466 0-.644z"/><path id="F" d="M.483 0C.216 0 0 .204 0 .455v1.946c0 .25.216.455.483.455s.483-.204.483-.455V.455C.967.204.75 0 .483 0z"/></defs></svg>
